T: Steak And Ale
M: 3/4
L: 1/8
K: Gmaj
|: B>A G2 G2 | B>A G2 d2 | B>d g2 (3fgf | d2 D4 |g>d B2 B2 | c>G e2 c2 | (3ded g2 f2 | g2 G4 :||: f>e d2 g2 | f>e d2 A2 | f>e d2 c2 | A2 d4 |g>d (3Bcd B>d |c>A e2 c2 | d2. g2. f2. | g2 G4 :|
